X: 42746
T: White Fairy
R: reel
M: 4/4
K: Dmajor
D2FA dfed|B2AF Bdef|dBAF DEFA|BFAF EDB,E|
D2FA dfed|B2AF Bdef|dBAF DEFD|1 EAFE D4:|2 EAFE D3B||
AFF2 EDB,E|DEFB ADFB|ABde fded|BdAD FEE2|
AFF2 EDB,E|DEFB ADFB|ABde fded|1 BdAF EDDB:|2 Bdfe d3f||
e3f (3efe de|fdAd faaf|(3eee ef (3efe de|f2bf afdf|
efdf edBF|AdBF AFED|ADFA dFAF|EAFE D4|
Bee2 Bege|fdAd faaf|e3f (3efe de|f2bf afdf|
efdf edBF|AdBF AFED|ADFA dFAF|EAFE D2(3A,B,C||

